dist/img/illustration/gyrocopter-pincher-reverse.svg

<svg data-name="Layer 1" xmlns="http://www.w3.org/2000/svg" width="12.33" height="11.96" viewBox="0 0 12.33 11.96"><path d="M3.76 4.79l2-.89 2.06.8.89 2-.8 2.06 1.78 1.7 1.51-3.8-1.65-3.74-3.82-1.48L2 3.09z" fill="#c093c3"/><path d="M1.87 2.82l3.75-1.65h.22l3.81 1.48.16.15 1.65 3.75v.22L10 10.59l-.47.1L7.74 9l-.07-.31.76-1.95-.8-1.81-1.84-.72-1.91.84L3.56 5 1.79 3.3zm3.87-1.07L2.5 3.18l1.32 1.26 1.85-.81h.22l2.11.8.16.15L9 6.6v.22l-.72 1.89L9.6 10l1.29-3.3-1.56-3.56z" fill="#7c3990"/></svg>

<svg id="Layer_1" data-name="Layer 1" xmlns="http://www.w3.org/2000/svg" width="12.33" height="11.96" viewBox="0 0 12.33 11.96"><title>Artboard 25 copy</title><path d="M3.76,4.79l2-.89,2.06.8.89,2-.8,2.06,1.78,1.7L11.2,6.66,9.55,2.92,5.73,1.44,2,3.09Z" style="fill:#c093c3"/><path d="M1.87,2.82,5.62,1.17h.22L9.65,2.65l.16.15,1.65,3.75v.22L10,10.59l-.47.1L7.74,9l-.07-.31.76-1.95-.8-1.81L5.79,4.21l-1.91.84L3.56,5,1.79,3.3ZM5.74,1.75,2.5,3.18,3.82,4.44l1.85-.81h.22L8,4.43l.16.15L9,6.6v.22L8.28,8.71,9.6,10l1.29-3.3L9.33,3.14Z" style="fill:#7c3990"/></svg>
